svgs/duotone/display-code.svg

<svg xmlns="http://www.w3.org/2000/svg" viewBox="0 0 576 512"><!--! Font Awesome Pro 6.0.0-alpha3 by @fontawesome - https://fontawesome.com License - https://fontawesome.com/license (Commercial License) --><defs><style>.fa-secondary{opacity:.4}</style></defs><path class="fa-primary" d="M64 64v288h448V64H64zM242.1 241.9c7.812 7.812 7.812 20.5 0 28.31C238.2 274.1 233.1 276 228 276S217.8 274.1 213.9 270.2l-48-48c-7.812-7.812-7.812-20.5 0-28.31l48-48c7.812-7.812 20.47-7.812 28.28 0s7.812 20.5 0 28.31L208.3 208L242.1 241.9zM410.1 222.2l-48 48C358.2 274.1 353.1 276 348 276s-10.23-1.938-14.14-5.844c-7.812-7.812-7.812-20.5 0-28.31l33.86-33.84L333.9 174.2c-7.812-7.812-7.812-20.5 0-28.31s20.47-7.812 28.28 0l48 48C417.1 201.7 417.1 214.4 410.1 222.2zM424 464H352L336 416h-96L224 464H152C138.8 464 128 474.8 128 488S138.8 512 152 512h272c13.25 0 24-10.75 24-24S437.3 464 424 464z"/><path class="fa-secondary" d="M528 0h-480C21.5 0 0 21.5 0 48v320C0 394.5 21.5 416 48 416h480c26.5 0 48-21.5 48-48v-320C576 21.5 554.5 0 528 0zM512 352H64V64h448V352z"/></svg>

<svg xmlns="http://www.w3.org/2000/svg" viewBox="0 0 576 512"><!-- Font Awesome Pro 6.0.0-alpha2 by @fontawesome - https://fontawesome.com License - https://fontawesome.com/license (Commercial License) --><defs><style>.fa-secondary{opacity:.4}</style></defs><path d="M528 0H48C21.5 0 0 21.5 0 48V368C0 394.5 21.5 416 48 416H528C554.5 416 576 394.5 576 368V48C576 21.5 554.5 0 528 0ZM512 352H64V64H512V352Z" class="fa-secondary"/><path d="M64 64V352H512V64H64ZM242.141 241.852C249.953 249.664 249.953 262.352 242.141 270.164C238.234 274.07 233.125 276.008 228 276.008S217.766 274.07 213.859 270.164L165.859 222.164C158.047 214.352 158.047 201.664 165.859 193.852L213.859 145.852C221.672 138.039 234.328 138.039 242.141 145.852S249.953 166.352 242.141 174.164L208.281 208.008L242.141 241.852ZM410.141 222.164L362.141 270.164C358.234 274.07 353.125 276.008 348 276.008S337.766 274.07 333.859 270.164C326.047 262.352 326.047 249.664 333.859 241.852L367.719 208.008L333.859 174.164C326.047 166.352 326.047 153.664 333.859 145.852S354.328 138.039 362.141 145.852L410.141 193.852C417.953 201.664 417.953 214.352 410.141 222.164ZM424 464H352L336 416H240L224 464H152C138.75 464 128 474.75 128 488S138.75 512 152 512H424C437.25 512 448 501.25 448 488S437.25 464 424 464Z" class="fa-primary"/></svg>
